src/fileIcons/FileIconRtf/FileIconRtf_size_s.svg

<svg viewBox="0 0 21 28" xmlns="http://www.w3.org/2000/svg">
  <path
    d="M19.6 0H1.4C0.626801 0 0 0.626801 0 1.4V26.6C0 27.3732 0.626801 28 1.4 28H19.6C20.3732 28 21 27.3732 21 26.6V1.4C21 0.626801 20.3732 0 19.6 0Z"
  />
  <path
    fill-rule="evenodd"
    clip-rule="evenodd"
    d="M16.35 3C16.2433 3 16.1567 3.03 16.09 3.09C16.03 3.14333 16 3.21333 16 3.3V4H17V5H16V8H17V9H14V8H15V5H14V4H15V3.1C15 2.76 15.0967 2.49333 15.29 2.3C15.4833 2.1 15.7333 2 16.04 2H17.5V3L16.35 3ZM11.05 8.99961C10.71 8.99961 10.45 8.88961 10.27 8.66961C10.09 8.44961 10 8.15961 10 7.79961V4.9998H9.00002V3.99961H10V3H11V3.99961H13V4.9998H11V7.6C11 7.74667 11.0367 7.85 11.11 7.91C11.1833 7.97 11.2967 8 11.45 8L13 8.00039V9L11.05 8.99961ZM5 5.01V8H4V9H7V8H6V5.62C6.00667 5.48 6.06333 5.34333 6.17 5.21C6.27667 5.07 6.43667 5 6.65 5H8V4H6C5.68667 4 5.22 4.32 5 4.5V4H4V5.01H5Z"
    fill="#fff"
  />
  <g opacity="0.5">
    <path d="M3 14H18V13H3V14Z" fill="#fff" />
    <path d="M3 17H18V16H3V17Z" fill="#fff" />
    <path d="M18 20H3V19H18V20Z" fill="#fff" />
    <path d="M3 23H11V22H3V23Z" fill="#fff" />
  </g>
</svg>

<svg viewBox="0 0 21 28" xmlns="http://www.w3.org/2000/svg">
  <path
    d="M19.6 0H1.4A1.4 1.4 0 000 1.4v25.2A1.4 1.4 0 001.4 28h18.2a1.4 1.4 0 001.4-1.4V1.4A1.4 1.4 0 0019.6 0z"
  />
  <path
    fill="#fff"
    d="M3.5 13h14a.5.5 0 010 1h-14a.5.5 0 010-1zm0 3h9a.5.5 0 010 1h-9a.5.5 0 010-1zm0 3h11a.5.5 0 010 1h-11a.5.5 0 010-1zm0 3h7a.5.5 0 010 1h-7a.5.5 0 010-1z"
    opacity=".5"
  />
  <path
    fill="#fff"
    fill-rule="evenodd"
    d="M16.35 3a.374.374 0 00-.26.09.268.268 0 00-.09.21V4h1v1h-1v3h1v1h-3V8h1V5h-1V4h1v-.9c0-.34.097-.607.29-.8.193-.2.443-.3.75-.3h1.46v1h-1.15zm-5.3 6c-.34 0-.6-.11-.78-.33-.18-.22-.27-.51-.27-.87V5H9V4h1V3h1v1h2v1h-2v2.6c0 .147.037.25.11.31.073.06.187.09.34.09H13v1h-1.95zM5 5.01V8H4v1h3V8H6V5.62a.708.708 0 01.17-.41c.107-.14.267-.21.48-.21H8V4H6c-.313 0-.78.32-1 .5V4H4v1.01h1z"
    clip-rule="evenodd"
  />
</svg>
